dist/img/common/svg/ic_fb-bg.svg

<svg width="46" height="46" viewBox="0 0 46 46" fill="none" xmlns="http://www.w3.org/2000/svg">
<rect width="46" height="46" rx="22.5" fill="#282DAA"/>
<g clip-path="url(#clip0_235_8)">
<path d="M27.0421 12H25.7974C22.3378 12 19.5232 14.4895 19.5232 17.5493V19.8914H17.3966C17.1776 19.8914 17 20.0484 17 20.2421V23.0481C17 23.2417 17.1776 23.3988 17.3966 23.3988H19.523V31.9925C19.523 32.1862 19.7006 32.3432 19.9196 32.3432H23.0921C23.3111 32.3432 23.4887 32.1862 23.4887 31.9925V23.3988H26.6442C26.8632 23.3988 27.0408 23.2417 27.0408 23.0481V20.2421C27.0408 20.0484 26.8632 19.8914 26.6442 19.8914H23.4887V17.5493C23.4887 16.4235 24.5243 15.5075 25.7972 15.5075H27.042C27.261 15.5075 27.4385 15.3504 27.4385 15.1567V12.3507C27.4387 12.1571 27.2611 12 27.0421 12Z" fill="white"/>
</g>
<defs>
<clipPath id="clip0_235_8">
<rect width="11" height="21" fill="white" transform="translate(17 12)"/>
</clipPath>
</defs>
</svg>

<svg width="46" height="46" viewBox="0 0 46 46" fill="none" xmlns="http://www.w3.org/2000/svg"><rect width="46" height="46" rx="22.5" fill="#282DAA"/><g clip-path="url(#clip0_235_8)"><path d="M27.042 12h-1.245c-3.46 0-6.274 2.49-6.274 5.55v2.341h-2.126c-.22 0-.397.157-.397.351v2.806c0 .194.178.35.397.35h2.126v8.595c0 .193.178.35.397.35h3.172c.22 0 .397-.157.397-.35v-8.594h3.155c.22 0 .397-.157.397-.35v-2.807c0-.194-.178-.35-.397-.35H23.49v-2.343c0-1.125 1.035-2.041 2.308-2.041h1.245c.219 0 .396-.158.396-.351V12.35c0-.194-.177-.351-.396-.351z" fill="#fff"/></g><defs><clipPath id="clip0_235_8"><path fill="#fff" transform="translate(17 12)" d="M0 0h11v21H0z"/></clipPath></defs></svg>
